static/images/mobile/copyright/wikipedia-wordmark-th.svg

<?xml version="1.0" encoding="UTF-8"?>
<svg xmlns="http://www.w3.org/2000/svg" width="103" height="27" viewBox="0 0 103 27">
	<title>
		Shape
	</title>
	<g id="Page-1" fill="none" fill-rule="evenodd" stroke="none" stroke-width="1">
		<path id="Shape" fill="#000" fill-rule="nonzero" d="M63.1950411,11.6110306 L63.1950411,21.0313006 C63.317324,20.9823979 63.534323,20.9687075 63.8522692,20.9687075 C64.6104346,20.9686975 65.2545953,21.2443577 65.7926571,21.7824185 C66.3551662,22.3204893 66.6376647,22.9714782 66.6376647,23.754103 C66.6376647,24.5367277 66.3551642,25.1877366 65.7926571,25.7257874 C65.2545973,26.2638382 64.6104356,26.5394984 63.8522692,26.5394984 C63.0207216,26.5394984 62.3179096,26.257008 61.7553985,25.6944908 C61.2440219,25.1831116 60.9640675,24.5501298 60.9173929,23.7961476 L60.9103908,23.5663235 L60.9103908,11.6110306 L63.1950411,11.6110306 Z M94.1734303,8.95871532 C95.0214871,8.95871532 95.7502434,9.21745825 96.3438982,9.75455357 C96.9375415,10.2634154 97.2482483,10.9322553 97.2482599,11.7803237 C97.2482483,12.5435991 96.9533541,13.2045442 96.4162472,13.7699193 C95.8791403,14.335306 95.1944647,14.6381181 94.3181281,14.6381065 C93.8658142,14.6381181 93.4635888,14.5624122 93.1243707,14.4210597 C93.336382,15.428146 93.790526,15.9458799 94.4986777,16.0066627 L94.6436983,16.0127362 L97.646179,16.0127362 L97.646179,18.1108553 L94.6436983,18.1108553 C94.1913844,18.1108553 93.8411461,18.2938807 93.5584643,18.6896467 C93.3111077,19.0359521 93.1642723,19.4390943 93.1314284,19.875351 L93.1243707,20.0642764 L93.1243707,22.0176976 C93.1243707,23.5442254 94.338953,24.296689 96.7418174,24.296689 C99.0861237,24.2966778 100.272929,23.5970122 100.354721,22.1782931 L100.359264,22.0176976 L100.359264,9.28428551 L103,9.28428551 L103,21.9091742 C103,24.9904863 100.925623,26.5395059 96.7418174,26.5395059 C92.6876232,26.5395059 90.5874234,25.0651267 90.4873865,22.1319012 L90.4836347,21.9091742 L90.4836347,19.955753 C90.4836347,18.5988343 91.0609676,17.6633684 92.2200091,17.0979702 C90.9196267,16.2216452 90.2665879,14.9234623 90.2665879,13.2273023 C90.2665879,11.9834795 90.6371881,10.9801908 91.3156474,10.1886472 C92.022375,9.36885852 92.9578524,8.95871532 94.1734303,8.95871532 Z M6.46587308,8.98211798 L6.69204555,8.97501853 L6.69204555,8.97501853 L7.15439781,8.98211798 C9.01940247,8.982128 10.4994863,9.31151823 11.6298085,10.0462016 C12.9183511,10.8784147 13.5945983,12.1408852 13.6590017,13.8156072 L13.6640861,14.0834603 L13.6640861,23.0968748 C13.6640861,24.0858968 13.3438084,24.9193872 12.6938922,25.5693045 C12.0439509,26.1909697 11.2761061,26.5082019 10.3153522,26.5082019 C9.41109342,26.5082019 8.62106864,26.1909797 7.99940542,25.5693045 C7.37772619,24.9476293 7.09179764,24.1919346 7.09180465,23.3159509 C7.09179764,22.4117051 7.37772719,21.6842725 7.99940542,21.0625972 C8.62106764,20.440932 9.41109342,20.0923933 10.3153522,20.0924033 C10.5018476,20.0923913 10.6637374,20.1047601 10.8061381,20.1207573 L11.0664701,20.1549965 L11.0664701,13.9269774 C11.0664581,12.1184858 9.75410392,11.2041851 7.15439781,11.204175 C6.08059568,11.2041851 5.16325341,11.5587828 4.40029891,12.2369621 C3.71807149,12.840466 3.33136651,13.6397149 3.2796037,14.6331693 L3.27362209,14.8658747 L0.769895827,14.8658747 C0.854666991,13.0008791 1.42348756,11.5329443 2.55380079,10.5156503 C3.56754554,9.60081879 4.88682501,9.09391437 6.46587308,8.98211798 Z M40.9547024,11.3293614 C41.786239,11.3293614 42.4822168,11.6118618 43.0202766,12.174369 C43.5316486,12.6857482 43.8116042,13.3187382 43.8582813,14.0727145 L43.8652842,14.3025363 L43.8652842,19.7481409 C43.8652772,20.3840373 43.7206139,21.6723547 43.4271321,23.6289166 L44.1255925,20.7998081 C44.2021122,20.504091 44.2590023,20.2953685 44.2967362,20.1722815 L44.3347329,20.0611067 L46.9010523,12.2369621 L48.3093983,12.2369621 L50.8931059,20.1191644 C50.9758323,20.4105172 51.2676704,21.566372 51.7833185,23.6289166 L51.6418185,22.6554368 C51.4574485,21.3392232 51.3596847,20.412138 51.346667,19.8671322 L51.3451664,11.6110306 L53.6298166,11.6110306 L53.6298166,26.2578292 L51.0634972,26.2578292 L47.589577,14.8658747 L44.0530637,26.2578292 L41.580634,26.2578292 L41.580634,16.8062626 L41.2401521,16.8715572 C41.1356407,16.8889156 41.0403013,16.9001573 40.9547024,16.9001523 C40.1720696,16.9001623 39.5210758,16.6245021 38.983018,16.0864413 C38.4449602,15.5239241 38.1693069,14.8347985 38.1693069,14.0521637 C38.1693069,13.2939953 38.4449632,12.6498466 38.983018,12.1117758 C39.5210728,11.573725 40.1720736,11.3293614 40.9547024,11.3293614 Z M77.0083607,11.3293614 L77.2134396,11.3220572 L77.2134396,11.3220572 L77.6342922,11.3293614 C79.3218298,11.3293714 80.689319,11.7633773 81.7654406,12.6438176 C82.8472944,13.541549 83.4174781,14.7416155 83.4808151,16.2662183 L83.4867524,16.5558899 L83.4867524,26.2578292 L81.2333987,26.2578292 L81.2333987,16.4307036 C81.2333877,15.5013305 80.8785626,14.733037 80.1693151,14.1460534 C79.4845069,13.5590898 78.6507069,13.2697592 77.6968854,13.2697492 C76.6696806,13.2697592 75.763548,13.6245873 75.0053796,14.3338329 C74.2472083,15.0186421 73.8787018,15.8279866 73.8787028,16.8062626 C73.8786978,17.4176926 74.0820224,18.3101508 74.4733378,19.4351751 C74.8891026,20.5601895 75.0992674,21.4076908 75.0992694,21.970198 C75.0992654,22.1414128 75.0542924,22.3652359 75.0053796,22.6587227 C75.7146342,21.509242 76.5347568,20.5307657 77.4152162,19.7481409 C76.730408,19.6992382 76.1791055,19.4235779 75.7877941,18.9344299 C75.4209321,18.5186511 75.2557493,18.0123275 75.2557523,17.4008976 C75.2557493,16.7650112 75.4795884,16.2068605 75.944277,15.7421789 C76.433415,15.2530409 77.005242,15.0223676 77.6655888,15.0223576 C78.3259216,15.0223676 78.8909124,15.2530409 79.355604,15.7421789 C79.8202806,16.2068605 80.0441218,16.7650112 80.0441288,17.4008976 C80.0441197,18.5014655 79.4928142,19.7174553 78.4167067,21.0625972 L77.6993514,21.9542999 C76.6596964,23.2624884 76.074607,24.0769796 75.9129804,24.3800345 C75.5919753,24.9364439 75.4014209,25.4886973 75.3588,26.0276771 L75.349642,26.2578292 L73.0336952,26.2578292 C73.0581466,25.3529124 73.0649908,24.5122613 73.0649918,23.754103 C73.0649878,22.4334174 72.9203255,21.4275904 72.6268397,20.7183349 C72.4067241,20.0824585 72.1897261,19.4382898 71.9696115,18.777947 C71.7494929,18.0931478 71.6566458,17.4763499 71.6566458,16.9627455 C71.6566458,15.2996703 72.2284728,13.9458555 73.3779576,12.8941903 C74.4051563,11.9740008 75.6066605,11.4443926 77.0083607,11.3293614 Z M26.5826356,11.3162518 C28.3435404,11.3162518 29.7253669,11.7931817 30.7281193,12.7470012 C31.7553061,13.6763744 32.2689185,14.9481472 32.2689185,16.5623095 L32.2689185,26.2473336 L29.9944053,26.2473336 L29.9944053,16.5256249 C29.9943953,15.5228825 29.6886813,14.7280396 29.0772624,14.141056 C28.4658254,13.5540924 27.6587412,13.2606056 26.6560068,13.2605956 C25.1885739,13.2606056 24.0757757,13.8842638 23.3176083,15.1315701 C24.4670891,15.3516877 25.2864025,15.9019767 25.7755505,16.7824271 C24.5282321,17.5161391 23.9045759,18.3965994 23.9045799,19.4237982 L23.9045799,26.2473336 L21.6300668,26.2473336 L21.6300668,19.2770498 C21.6300648,18.249851 22.131435,17.4427699 23.1341803,16.8557963 C22.5227494,16.4400275 21.7768072,16.2932891 20.8963528,16.4155711 C20.9452656,14.8992243 21.5322372,13.651928 22.6572655,12.673622 C23.6844613,11.7687152 24.9929167,11.3162518 26.5826356,11.3162518 Z M63.8522692,22.5022398 C63.5098646,22.5022398 63.220532,22.6332248 62.975965,22.8777988 C62.731394,23.1223728 62.6004061,23.4117034 62.6004061,23.754103 C62.6004061,24.0964925 62.731391,24.3858332 62.975965,24.6304072 C63.220535,24.8749711 63.5098656,25.0059661 63.8522692,25.0059661 C64.1946638,25.0059661 64.4839964,24.8749711 64.7285734,24.6304072 C64.9731424,24.3858332 65.1041323,24.0964925 65.1041323,23.754103 C65.1041323,23.4117034 64.9731394,23.1223728 64.7285734,22.8777988 C64.4839994,22.6332248 64.1946648,22.5022398 63.8522692,22.5022398 Z M10.3153522,21.8450117 C9.91973343,21.8450117 9.5338361,22.0005832 9.25126856,22.2831638 C8.96868299,22.5657544 8.84441304,22.8890655 8.84441304,23.2846543 C8.84441304,23.680253 8.96868099,24.0348608 9.25126856,24.3174414 C9.5338381,24.6000019 9.91973343,24.7242969 10.3153522,24.7242969 C10.710951,24.7242969 11.0342542,24.6000119 11.3168427,24.3174414 C11.5994103,24.0348508 11.7236982,23.6802731 11.7236982,23.2846543 C11.7236982,22.8890455 11.5994103,22.5657443 11.3168427,22.2831638 C11.0342542,22.0005932 10.710951,21.8450117 10.3153522,21.8450117 Z M77.6655888,16.3055173 C77.3476376,16.3055173 77.0719874,16.4296821 76.8518778,16.6497797 C76.6562136,16.8454409 76.5702086,17.0829544 76.5702086,17.4008976 C76.5702086,17.7188407 76.6562166,17.994491 76.8518778,18.2146086 C77.0719844,18.4102698 77.3476416,18.4962778 77.6655888,18.4962778 C77.983523,18.4962778 78.2210435,18.4102698 78.4167067,18.2146086 C78.6368143,17.994491 78.760969,17.7188407 78.760969,17.4008976 C78.760969,17.1283748 78.6697533,16.9149433 78.5050816,16.7363093 L78.4167067,16.6497797 C78.2210435,16.4296821 77.983527,16.3055173 77.6655888,16.3055173 Z M40.9547024,12.8628937 C40.6122978,12.8628937 40.3229692,12.9938887 40.0783982,13.2384526 C39.8338272,13.4830366 39.7028393,13.7723673 39.7028393,14.1147568 C39.7028393,14.4571564 39.8338272,14.746497 40.0783982,14.991061 C40.3229692,15.235635 40.6123018,15.36662 40.9547024,15.36662 C41.297097,15.36662 41.5864336,15.235635 41.8310066,14.991061 C42.0755746,14.746497 42.2065655,14.4571564 42.2065655,14.1147568 C42.2065655,13.7723673 42.0755756,13.4830366 41.8310066,13.2384526 C41.5864326,12.9938887 41.297101,12.8628937 40.9547024,12.8628937 Z M94.3181281,10.4780429 C93.9223621,10.4780429 93.5958427,10.5853856 93.3414175,10.8397876 C93.0869924,11.0942243 92.9434984,11.4207437 92.9434984,11.8164981 C92.9434984,12.2122642 93.0869924,12.5388067 93.3414175,12.7932087 C93.5958427,13.0476455 93.9223621,13.1911279 94.3181281,13.1911279 C94.7138941,13.1911279 95.040402,13.0476455 95.2948387,12.7932087 C95.5492523,12.5388067 95.6565834,12.2122642 95.6565834,11.8164981 C95.6565834,11.4207437 95.5492523,11.0942243 95.2948387,10.8397876 C95.040402,10.5853856 94.7138941,10.4780429 94.3181281,10.4780429 Z M51.363694,2.47634552 L53.5544545,2.47634552 L53.5544545,9.23640644 L53.6483442,9.73715169 C50.6156637,8.75887573 47.8425475,8.26622252 45.3234544,8.26621251 C44.1739816,8.26622252 42.9921948,8.33855017 41.8182376,8.48528856 C42.1117384,5.20804107 43.892711,3.57174579 47.1699525,3.57172576 C48.7978869,3.57174454 50.1350489,3.99872982 51.1623672,4.83801775 L51.363694,5.01136836 L51.363694,2.47634552 Z M83.4429372,2.47242969 L83.4429372,9.23249061 L83.5055303,9.73323586 L83.5055303,9.73323586 C80.4728498,8.75495991 77.6997346,8.2623067 75.1806405,8.26229668 C74.0311697,8.2623067 72.8806775,8.33463434 71.7067203,8.48137273 C72.0002181,5.20412524 73.7811927,3.56782996 77.0584352,3.56780993 C78.6863715,3.56782871 79.9960215,3.99481399 81.0199042,4.83410192 L81.2208801,5.00745253 L81.2208801,2.47242969 L83.4429372,2.47242969 Z M25.8261868,3.56780993 C27.7093926,3.56780993 29.2010336,4.13966101 30.3015975,5.28912174 C31.4021705,6.41416613 32.0531714,7.89896594 32.273282,9.73323586 C29.2406005,8.75495991 26.4674863,8.2623067 23.9483921,8.26229668 C22.7989194,8.2623067 21.6484291,8.33463434 20.4744719,8.48137273 C20.7679717,5.20412524 22.5489443,3.56780993 25.8261868,3.56780993 Z M47.4829183,5.04266494 C46.6024669,5.04266494 45.8341655,5.23916739 45.1982681,5.60600335 C44.5623967,5.94842297 44.1489143,6.39610926 43.9777015,6.9830528 C44.3934843,6.88524723 45.0689426,6.85788651 45.9493859,6.85786648 C47.7592255,6.85788651 49.5401961,7.08855982 51.3011008,7.57768779 C51.1543615,6.96627783 50.689068,6.39444678 49.955348,5.85637598 C49.221638,5.31833522 48.4122985,5.04266494 47.4829183,5.04266494 Z M26.107856,5.03874911 C25.2274077,5.03874911 24.4591022,5.23525157 23.8232058,5.60208752 C23.1873334,5.94450714 22.8051496,6.39219343 22.6339358,6.97913697 C23.0497176,6.88133141 23.6938793,6.85397069 24.5743237,6.85395066 C26.3841592,6.85397069 28.1651328,7.08464399 29.9260386,7.57377196 C29.7792992,6.962362 29.3453033,6.39053095 28.6115823,5.85246015 C27.8778763,5.31441939 27.0372352,5.03874911 26.107856,5.03874911 Z M77.3401044,5.03874911 C76.459656,5.03874911 75.6913516,5.23525157 75.0554542,5.60208752 C74.4195758,5.94450714 74.037397,6.39219343 73.8661842,6.97913697 C74.281969,6.88133141 74.9261277,6.85397069 75.8065721,6.85395066 C77.6164056,6.85397069 79.3973862,7.08464399 81.158287,7.57377196 C81.0115486,6.962362 80.5775516,6.39053095 79.8438307,5.85246015 C79.1101227,5.31441939 78.2694846,5.03874911 77.3401044,5.03874911 Z M6.22801909,0 C8.40387739,0 10.120359,0.674894438 11.3919545,2.00298101 C12.663558,3.3028556 13.4222852,5.01630571 13.6766047,7.13561986 C10.1726448,6.00531765 6.94782136,5.41431807 4.03725861,5.41430805 C2.70915601,5.41431807 1.3563877,5.49513835 0,5.66468068 C0.339110695,1.87814522 2.44148764,0 6.22801909,0 Z M6.54098487,1.69001523 C5.52371488,1.69001523 4.64678676,1.92340258 3.91207229,2.34724338 C3.17738286,2.74287219 2.73284126,3.26520957 2.53502285,3.94336887 C3.01541881,3.83036068 3.73981192,3.78691602 4.75707991,3.78688598 C6.84816605,3.78691602 8.91924942,4.0667525 10.9538024,4.63189359 C10.7842621,3.92546222 10.2680088,3.25059783 9.42027008,2.62891258 C8.57254342,2.00725738 7.614789,1.69001523 6.54098487,1.69001523 Z"/>
	</g>
</svg>

<svg xmlns="http://www.w3.org/2000/svg" width="103" height="27"><path fill="#000" fill-rule="nonzero" d="M63.195 11.611v9.42c.122-.049.34-.062.657-.062.758 0 1.403.275 1.94.813.563.538.846 1.19.846 1.972 0 .783-.283 1.434-.845 1.972-.538.538-1.183.813-1.94.813-.832 0-1.535-.282-2.098-.845-.511-.51-.79-1.144-.838-1.898l-.007-.23V11.611h2.285zm30.978-2.652c.848 0 1.577.258 2.17.796.595.508.905 1.177.905 2.025 0 .764-.295 1.425-.832 1.99-.537.565-1.222.868-2.098.868-.452 0-.854-.076-1.194-.217.212 1.007.667 1.525 1.375 1.586l.145.006h3.002v2.098h-3.002c-.453 0-.803.183-1.086.579-.247.346-.394.75-.427 1.185l-.007.19v1.953c0 1.526 1.215 2.279 3.618 2.279 2.344 0 3.53-.7 3.613-2.119l.004-.16V9.284H103V21.91c0 3.081-2.074 4.63-6.258 4.63-4.054 0-6.155-1.474-6.255-4.407l-.003-.223v-1.953c0-1.357.577-2.293 1.736-2.858-1.3-.876-1.953-2.175-1.953-3.87 0-1.245.37-2.248 1.049-3.04.706-.82 1.642-1.23 2.857-1.23zm-87.707.023.226-.007.462.007c1.865 0 3.345.33 4.476 1.064 1.288.832 1.965 2.095 2.029 3.77l.005.267v9.014c0 .989-.32 1.822-.97 2.472-.65.622-1.418.94-2.379.94-.904 0-1.694-.318-2.316-.94-.621-.621-.907-1.377-.907-2.253 0-.904.286-1.632.907-2.253a3.207 3.207 0 0 1 2.316-.97c.187 0 .349.012.491.028l.26.034v-6.228c0-1.809-1.312-2.723-3.912-2.723-1.073 0-1.99.355-2.754 1.033-.682.603-1.069 1.403-1.12 2.396l-.006.233H.77c.085-1.865.653-3.333 1.784-4.35C3.568 9.6 4.887 9.094 6.466 8.982zm34.489 2.347c.831 0 1.527.283 2.065.845.512.512.792 1.145.838 1.899l.007.23v5.445c0 .636-.144 1.924-.438 3.88l.699-2.828c.076-.296.133-.505.17-.628l.039-.11 2.566-7.825h1.408l2.584 7.882c.083.292.375 1.447.89 3.51l-.141-.974c-.185-1.316-.282-2.243-.295-2.788l-.002-8.256h2.285v14.647h-2.567L47.59 14.866l-3.537 11.392h-2.472v-9.452l-.34.066a1.78 1.78 0 0 1-.286.028 2.678 2.678 0 0 1-1.972-.814 2.862 2.862 0 0 1-.814-2.034c0-.758.276-1.402.814-1.94.538-.538 1.19-.783 1.972-.783zm36.053 0 .205-.007.421.007c1.688 0 3.055.434 4.131 1.315 1.082.898 1.652 2.098 1.716 3.622l.006.29v9.702h-2.254V16.43c0-.93-.354-1.698-1.064-2.285-.684-.587-1.518-.876-2.472-.876a3.823 3.823 0 0 0-2.692 1.064c-.758.685-1.126 1.494-1.126 2.472 0 .612.203 1.504.594 2.63.416 1.124.626 1.972.626 2.534 0 .171-.045.395-.094.689.71-1.15 1.53-2.128 2.41-2.91-.685-.05-1.236-.325-1.627-.815-.367-.415-.532-.922-.532-1.533 0-.636.224-1.194.688-1.659a2.34 2.34 0 0 1 1.722-.72c.66 0 1.225.231 1.69.72.464.465.688 1.023.688 1.659 0 1.1-.551 2.316-1.627 3.662l-.718.891c-1.04 1.308-1.624 2.123-1.786 2.426-.321.556-.512 1.109-.554 1.648l-.01.23h-2.315a92.24 92.24 0 0 0 .031-2.504c0-1.32-.145-2.326-.438-3.036-.22-.636-.437-1.28-.657-1.94-.22-.685-.313-1.302-.313-1.815 0-1.663.571-3.017 1.721-4.069a6.035 6.035 0 0 1 3.63-1.565zm-50.425-.013c1.76 0 3.142.477 4.145 1.431 1.027.93 1.54 2.201 1.54 3.815v9.685h-2.274v-9.721c0-1.003-.305-1.798-.917-2.385-.611-.587-1.418-.88-2.421-.88-1.467 0-2.58.623-3.338 1.87 1.15.22 1.968.771 2.458 1.651-1.248.734-1.871 1.615-1.871 2.642v6.823H21.63v-6.97c0-1.027.501-1.834 1.504-2.421-.611-.416-1.357-.563-2.238-.44.05-1.517.636-2.764 1.761-3.742 1.027-.905 2.336-1.358 3.926-1.358zm37.27 11.186a1.2 1.2 0 0 0-.877.376 1.2 1.2 0 0 0-.376.876c0 .342.131.632.376.876a1.2 1.2 0 0 0 .876.376 1.2 1.2 0 0 0 .877-.376 1.2 1.2 0 0 0 .375-.876 1.2 1.2 0 0 0-.375-.876 1.2 1.2 0 0 0-.877-.376zm-53.538-.657c-.395 0-.781.156-1.064.438a1.337 1.337 0 0 0-.407 1.002c0 .395.125.75.407 1.032.283.283.669.407 1.064.407.396 0 .72-.124 1.002-.407.282-.282.407-.637.407-1.032 0-.396-.125-.72-.407-1.002-.283-.282-.606-.438-1.002-.438zm67.35-5.54c-.317 0-.593.125-.813.345-.196.195-.282.433-.282.75 0 .319.086.594.282.815.22.195.496.281.814.281.318 0 .555-.086.75-.281.22-.22.345-.496.345-.814a.936.936 0 0 0-.256-.665l-.088-.086a.953.953 0 0 0-.751-.344zm-36.71-3.442a1.2 1.2 0 0 0-.877.375 1.2 1.2 0 0 0-.375.877c0 .342.13.631.375.876a1.2 1.2 0 0 0 .877.376 1.2 1.2 0 0 0 .876-.376 1.2 1.2 0 0 0 .376-.876 1.2 1.2 0 0 0-.376-.877 1.2 1.2 0 0 0-.876-.375zm53.363-2.385c-.396 0-.722.107-.977.362a1.337 1.337 0 0 0-.398.976c0 .396.144.723.398.977.255.255.581.398.977.398s.722-.143.977-.398c.254-.254.362-.58.362-.977 0-.395-.108-.722-.362-.976-.255-.255-.581-.362-.977-.362zM51.364 2.476h2.19v6.76l.094.501c-3.032-.978-5.805-1.47-8.325-1.47-1.149 0-2.33.072-3.505.218.294-3.277 2.075-4.913 5.352-4.913 1.628 0 2.965.427 3.992 1.266l.202.173V2.476zm32.079-.004v6.76l.063.501c-3.033-.978-5.806-1.47-8.325-1.47-1.15 0-2.3.072-3.474.218.293-3.277 2.074-4.913 5.351-4.913 1.628 0 2.938.427 3.962 1.266l.2.173V2.472h2.223zM25.826 3.568c1.883 0 3.375.572 4.476 1.721 1.1 1.125 1.751 2.61 1.971 4.444-3.032-.978-5.806-1.47-8.325-1.47-1.15 0-2.3.072-3.474.218.294-3.277 2.075-4.913 5.352-4.913zm21.657 1.475c-.88 0-1.649.196-2.285.563-.636.342-1.05.79-1.22 1.377.415-.098 1.09-.125 1.971-.125 1.81 0 3.591.23 5.352.72-.147-.612-.612-1.184-1.346-1.722a4.054 4.054 0 0 0-2.472-.813zm-21.375-.004c-.88 0-1.649.196-2.285.563-.636.343-1.018.79-1.19 1.377.417-.098 1.06-.125 1.941-.125 1.81 0 3.591.23 5.352.72-.147-.612-.58-1.183-1.314-1.722a4.145 4.145 0 0 0-2.504-.813zm51.232 0c-.88 0-1.649.196-2.285.563-.635.343-1.018.79-1.189 1.377.416-.098 1.06-.125 1.94-.125 1.81 0 3.591.23 5.352.72-.146-.612-.58-1.183-1.314-1.722a4.145 4.145 0 0 0-2.504-.813zM6.228 0c2.176 0 3.892.675 5.164 2.003 1.272 1.3 2.03 3.013 2.285 5.133-3.504-1.13-6.73-1.722-9.64-1.722A32.6 32.6 0 0 0 0 5.664C.34 1.879 2.441 0 6.228 0zm.313 1.69c-1.017 0-1.894.233-2.629.657-.735.396-1.18.918-1.377 1.596.48-.113 1.205-.156 2.222-.156 2.091 0 4.162.28 6.197.845-.17-.707-.686-1.381-1.534-2.003a4.748 4.748 0 0 0-2.879-.939z"/></svg>
